X:1
T:Title
%%score { ( 1 2 ) | 3 } ( 4 5 )
L:1/8
Q:1/4=90
M:4/4
K:Ab
V:1 treble nm="Grand Piano, Soprano"
V:2 treble 
V:3 treble 
V:4 bass nm="Choir Pad, His Wonderful Love"
V:5 bass 
V:1
 z2 E2 z2 E2 | z2 F2 z2 A2 | z2 E2 z2 A2 | z2 B2 z4 | EE c2 cc A2 | BB G6 | GG F2 GA G2 | %7
 z2 E4 z2 | =E2 z2 F2 z2 | G2 z2 A2 z2 | d2 z2 B2 z2 | c2 AG F2 FG | A2 AA B2 _cc | c4 e2 ee | %14
 =d2 FG A2 GF | B6 E2 | c2 _c=c e2 dc | B4 F2 F2 | B2 =AB d2 cB | A4 E2 EE | c2 _c=c e2 e2 | %21
 A2 AA d2 dd | c2 dc f2 G2 | A8 |] %24
V:2
 EE z C EE z C | EE z D FF z D | FF z C EE z E | GA z E Bc B2 | x8 | x8 | x8 | EF z B, CDEE | %8
 z C=EE z CFF | z EGG z FAA | z Fdd z D_cc | x8 | x8 | x8 | x8 | x8 | x8 | x8 | x8 | x8 | x8 | x8 | %22
 x8 | x8 |] %24
V:3
 z4 CC z2 | CC z2 DD z2 | DD z2 CC z2 | EE z2 =DD E2 | z2 E2 EE F2 | =EE E6 | =EE =D4 D2 | %7
 z =D z2 z4 | z2 CC z2 CC | z2 EE z2 FF | z2 FF z2 DF | =E2 FE C2 CE | F2 F2 F2 F2 | %13
 =E4 [_EGd]2 z2 | F2 =DE F2 ED | D6 C2 | E2 =DE E2 EE | F4 D2 D2 | D2 CD D2 ED | C6 CC | %20
 E2 =DE E2 _G2 | F2 FF F2 =EE | E2 EE [=DF]2 _D2 | C2 D2 C4 |] %24
V:4
 z2 z E, E,E, z A, | A,A, z A, A,A, z A, | A,A,A,,A, A,A, z A, | [B,,B,][C,A,] z G, A,A, [E,G,]2 | %4
 z2 [A,,A,]4 C2 | G,2 C,=E, G,D C2 | z2 B,2- [B,,B,]2 B,,2- | [B,,-G,][B,,A,] z G, A,B, z2 | %8
 z G,G,G, z A,A,A, | z CCC z CCC | B,,B,B,B, z F,F,D, | C,G,CB, A,2 z2 | D,A,DA, D,A,DA, | %13
 C,G,_G,A, [E,=G,]2 z2 | B,,F,B,F, B,,F,B,A, | E,,G,_G,A, [E,=G,]2 [A,,A,]2 | %16
 [A,,A,]2 [A,,A,][A,,A,] [C,A,]2 [B,,G,][A,,A,] | [D,A,]2 [D,A,]2 [D,A,]2 [D,A,]2 | %18
 [E,G,]2 [E,_G,][E,=G,] [E,G,]2 [E,A,][E,G,] | [A,,A,]2 [A,,E,]2 [A,,A,]2 [A,,A,][A,,A,] | %20
 [A,,A,]2 [A,,A,][A,,A,] [C,A,]2 [A,,A,]2 | [D,A,]2 [D,A,][D,A,] [D,A,]2 [D,A,][D,A,] | %22
 [E,A,]2 [E,G,][E,A,] [B,,A,]2 [E,B,]2 | A,2 G,F, E,4 |] %24
V:5
 z2 A,,2 z2 A,,2 | z2 D,2 z2 D,2 | z4 z2 C,2 | z2 E,2 B,,2 z2 | z4 z2 C,2- | C,2 z2 z4 | %6
 z2 A,2 z2 B,2 | z2 E,2- E, .E,3 | C,2 z2 F,,2 z2 | C,2 z2 F,2 z2 | z4 D,2 z2 | x8 | x8 | x8 | x8 | %15
 x8 | x8 | x8 | x8 | x8 | x8 | x8 | x8 | A,,8 |] %24

